source/img/svg/icon-mobile.svg

<svg width="50" height="50" viewBox="0 0 50 50" fill="none" xmlns="http://www.w3.org/2000/svg">
<path fill-rule="evenodd" clip-rule="evenodd" d="M10.7222 4.68824C10.7222 2.1 12.9457 0 15.6869 0H32.2369C34.981 0 37.2016 2.1 37.2016 4.68824V45.3116C37.2016 47.8999 34.981 49.9999 32.2369 49.9999H15.6869C12.9457 49.9999 10.7222 47.8999 10.7222 45.3116V4.68824ZM32.2369 2.34413H15.6869C14.3163 2.34413 13.2045 3.39413 13.2045 4.68824V44.1353C13.2045 44.4588 13.4692 44.7235 13.7928 44.7235H34.131C34.2869 44.7235 34.4366 44.6615 34.5469 44.5511C34.6573 44.4409 34.7191 44.2912 34.7191 44.1353V4.68824C34.7191 3.39413 33.6074 2.34413 32.2369 2.34413Z" fill="#A62E41"/>
<path d="M17.3399 2.2559C17.3399 1.3206 18.0811 0 18.9958 0H28.9251C29.837 0 30.5811 1.32353 30.5811 2.2559C30.5851 2.69951 30.4129 3.1266 30.1027 3.44359C29.7922 3.76059 29.3688 3.94163 28.9251 3.94707H18.9958C18.776 3.94476 18.5589 3.89919 18.3567 3.81294C18.1546 3.7267 17.9714 3.60148 17.8176 3.44444C17.6638 3.28739 17.5425 3.10161 17.4606 2.89767C17.3786 2.69374 17.3376 2.47567 17.3399 2.2559Z" fill="#A62E41"/>
<path d="M22.7131 47.0822C22.7131 46.3939 23.2748 45.8352 23.9689 45.8352C24.663 45.8352 25.2279 46.3939 25.2279 47.0822C25.2275 47.2469 25.1946 47.41 25.131 47.5622C25.0676 47.7143 24.9747 47.8521 24.8577 47.9683C24.7409 48.0845 24.602 48.1764 24.4495 48.2388C24.297 48.3012 24.1339 48.3329 23.9689 48.3321C23.8044 48.3325 23.6414 48.3006 23.4893 48.238C23.3372 48.1754 23.1988 48.0833 23.0822 47.9673C22.9656 47.8511 22.8729 47.7133 22.8097 47.5614C22.7462 47.4096 22.7135 47.2467 22.7131 47.0822Z" fill="white"/>
</svg>

<svg width="50" height="50" fill="none" xmlns="http://www.w3.org/2000/svg"><path fill-rule="evenodd" clip-rule="evenodd" d="M10.722 4.688C10.722 2.1 12.946 0 15.687 0h16.55c2.744 0 4.965 2.1 4.965 4.688v40.624C37.202 47.9 34.98 50 32.237 50h-16.55c-2.741 0-4.965-2.1-4.965-4.688V4.688zm21.515-2.344h-16.55c-1.37 0-2.482 1.05-2.482 2.344v39.447a.59.59 0 00.588.589H34.13a.588.588 0 00.588-.589V4.688c0-1.294-1.112-2.344-2.482-2.344z" fill="#A62E41"/><path d="M17.34 2.256c0-.936.74-2.256 1.656-2.256h9.93c.911 0 1.655 1.324 1.655 2.256a1.677 1.677 0 01-1.656 1.691h-9.93a1.673 1.673 0 01-1.655-1.691z" fill="#A62E41"/><path d="M22.713 47.082c0-.688.562-1.247 1.256-1.247s1.259.559 1.259 1.247a1.253 1.253 0 01-1.26 1.25 1.252 1.252 0 01-1.255-1.25z" fill="#fff"/></svg>
